icons-rebrand/svg/battery-charging-regular.svg

<svg width="32" height="32" viewBox="0 0 32 32" fill="none" xmlns="http://www.w3.org/2000/svg">
<path d="M25 6.25H11C9.74063 6.25132 8.53322 6.75219 7.6427 7.6427C6.75219 8.53322 6.25132 9.74063 6.25 11V12.25H5C4.2709 12.2508 3.57189 12.5408 3.05633 13.0563C2.54078 13.5719 2.25079 14.2709 2.25 15V17C2.25079 17.7291 2.54078 18.4281 3.05633 18.9437C3.57189 19.4592 4.2709 19.7492 5 19.75H6.25V21C6.25132 22.2594 6.75219 23.4668 7.6427 24.3573C8.53322 25.2478 9.74063 25.7487 11 25.75H25C26.2594 25.7487 27.4668 25.2478 28.3573 24.3573C29.2478 23.4668 29.7487 22.2594 29.75 21V11C29.7484 9.74071 29.2475 8.53345 28.357 7.643C27.4666 6.75254 26.2593 6.25159 25 6.25ZM6.25 18.25H5C4.66856 18.2497 4.35077 18.118 4.11641 17.8836C3.88205 17.6492 3.75026 17.3314 3.75 17V15C3.75026 14.6686 3.88205 14.3508 4.11641 14.1164C4.35077 13.882 4.66856 13.7503 5 13.75H6.25V18.25ZM28.25 21C28.2489 21.8616 27.9062 22.6877 27.2969 23.2969C26.6877 23.9062 25.8616 24.2489 25 24.25H11C10.1384 24.2489 9.31234 23.9062 8.70307 23.2969C8.09381 22.6877 7.75106 21.8616 7.75 21V11C7.75106 10.1384 8.09381 9.31234 8.70307 8.70307C9.31234 8.09381 10.1384 7.75106 11 7.75H25C25.8616 7.75106 26.6877 8.09381 27.2969 8.70307C27.9062 9.31234 28.2489 10.1384 28.25 11V21Z" fill="#0F0F0F"/>
<path d="M25.2781 13.3039C25.0934 13.2303 24.887 13.2329 24.7042 13.3113C24.5214 13.3897 24.3772 13.5373 24.3031 13.7219C23.4491 15.8579 22.3681 17.1049 21.2601 17.2339C20.3911 17.3299 19.4481 16.7359 18.6141 15.5459C17.4681 13.9109 16.0341 13.1059 14.5911 13.2709C13.3911 13.4109 11.6731 14.2959 10.3031 17.7209C10.2293 17.9056 10.2318 18.1121 10.3102 18.295C10.3886 18.4778 10.5364 18.622 10.7211 18.6959C10.9059 18.7698 11.1124 18.7672 11.2952 18.6888C11.478 18.6104 11.6223 18.4626 11.6961 18.2779C12.5511 16.1409 13.6401 14.8919 14.7641 14.7619C15.6181 14.6529 16.5691 15.2429 17.3851 16.4069C18.5511 18.0699 19.9941 18.8839 21.4331 18.7249C22.6221 18.5849 24.3261 17.7029 25.6961 14.2779C25.7328 14.1865 25.7511 14.0888 25.75 13.9903C25.7488 13.8918 25.7282 13.7946 25.6894 13.7041C25.6506 13.6136 25.5943 13.5317 25.5237 13.463C25.4531 13.3943 25.3696 13.3402 25.2781 13.3039Z" fill="#0F0F0F"/>
</svg>

<svg width="32" height="32" viewBox="0 0 32 32" fill="none" xmlns="http://www.w3.org/2000/svg"><path d="M25 6.25H11A4.755 4.755 0 0 0 6.25 11v1.25H5A2.753 2.753 0 0 0 2.25 15v2A2.753 2.753 0 0 0 5 19.75h1.25V21A4.755 4.755 0 0 0 11 25.75h14A4.755 4.755 0 0 0 29.75 21V11A4.756 4.756 0 0 0 25 6.25zm-18.75 12H5A1.251 1.251 0 0 1 3.75 17v-2A1.251 1.251 0 0 1 5 13.75h1.25v4.5zm22 2.75A3.254 3.254 0 0 1 25 24.25H11A3.254 3.254 0 0 1 7.75 21V11A3.254 3.254 0 0 1 11 7.75h14A3.254 3.254 0 0 1 28.25 11v10z" fill="#0F0F0F"/><path d="M25.278 13.304a.751.751 0 0 0-.975.418c-.854 2.136-1.935 3.383-3.043 3.512-.869.096-1.812-.498-2.646-1.688-1.146-1.635-2.58-2.44-4.023-2.275-1.2.14-2.918 1.025-4.288 4.45a.75.75 0 1 0 1.393.557c.855-2.137 1.944-3.386 3.068-3.516.854-.109 1.805.481 2.621 1.645 1.166 1.663 2.609 2.477 4.048 2.318 1.189-.14 2.893-1.022 4.263-4.447a.748.748 0 0 0-.418-.974z" fill="#0F0F0F"/></svg>
